!!!COM: Bach, Johann Sebastian
!!!OPR: Chorale Harmonizations
!!!ONR: Nr. 170
!!!OTL: Was betru2bst du dich, mein Herze
!!!SCT: BWV 423
!!!YEC: Copyright 1996, Center for Computer Assisted Research in the Humanities
!!!YEM: Rights to all derivative electronic formats reserved.
!!!YEM: Refer to licensing agreement for further details.
**kern	**kern	**kern	**kern
*ICvox	*ICvox	*ICvox	*ICvox
*Ibass	*Itenor	*Icalto	*Isoprn
*	*	*Ialto	*
*k[b-]	*k[b-]	*k[b-]	*k[b-]
*M4/4	*M4/4	*M4/4	*M4/4
*clefF4	*clefGv2	*clefG2	*clefG2
=1-	=1-	=1-	=1-
4.G\	8B-\L	8g/L	4dd\
.	16c\L	16a/L	.
.	16d\JJ	16b-/JJ	.
.	8e-\L	4a/	4cc\
8F#\	8d\J	.	.
4G\	4d\	8a/L	4b-\
.	.	8g/J	.
4D\	8.d\L	8g/L	4a/
.	.	8f#/J	.
.	16c\Jk	.	.
=2	=2	=2	=2
4GG/,	8B-\L,	8d/L,	4b-\,
.	8d\J	16g/L	.
.	.	16f/JJ	.
4C/	8c\L	4e-/	8a/L
.	8B-\J	.	8g/J
4D\	4A/	4d/	4f#/
4DD;/,	4F#;/,	4A;/,	4d;/,
=3	=3	=3	=3
8GG/L	4G/	8B-/L	4dd\
8AA/J	.	8c/J	.
8BB-/L	8g\L	4d/	4dd\
8GG/J	8f\J	.	.
8C/L	16e-\LL	4G/	4ee-\
.	16d\J	.	.
8D/J	8c\J	.	.
4E-\	8c\L	4g/	4cc\
.	8B-\J	.	.
=4	=4	=4	=4
4FF#/	8A\L	4.a/	4dd\
.	8d\J	.	.
4GG/	4d\	.	8cc\L
.	.	8g/	8b-\J
2D;\	2d;\	2f#;/	2a;/
=5	=5	=5	=5
4D\	4A/	4f#/	4dd:\
8E\L,	8G\L,	8g/L,	4cc\,
8F#\J	8d\J	8a/J	.
4G\	4d\	8a/L	4b-\
.	.	8g/J	.
4D\	4d\	8g/L	4a/
.	.	8f#/J	.
=6	=6	=6	=6
4G\	4d\	8g/L	4b-\
.	.	8f/J	.
4C#/	8e\L	4e/	8a/L
.	8A\J	.	8g/J
4D\	4A/	4d/	4f#/
4DD;/,	4F#;/,	4A;/,	4d;/,
=7	=7	=7	=7
4BB-/	8F/L	8B-/L	4dd\
.	8B-/J	8d/J	.
8B-\L	8d\L	4f/	4dd\
8A\J	8c\J	.	.
4G\	4B-\	4.g/	4ee-\
4A\	4c\	.	4cc\
.	.	8f/	.
=8	=8	=8	=8
4B-\	8c\L	4f/	4dd\
.	8B-\J	.	.
4F\	8B-/L	8.f/L	4cc\
.	8A/J	.	.
.	.	16e-/Jk	.
2BB-;/	2F;/	2d;/	2b-;\
=9	=9	=9	=9
8B-\L	8d\L	4f/	4dd\
8A\J	8c\J	.	.
4G\	4B-\	4g/	4ee-\
4D\	8B-/L	4f/	4ff\
.	8A/J	.	.
4G\	4B-\	8g/L	4dd\
.	.	8f/J	.
=10	=10	=10	=10
4C/	8B-/L	8e-/L	4ee-\
.	8A/J	8c/J	.
8D\L	4B-\	4f/	4dd\
8E-\J	.	.	.
4F\	8B-/L	4f/	8dd\L
.	8A/J	.	8cc\J
4FF;/	4A;/	4f;/	4cc;\
=11	=11	=11	=11
8F\L	4A/	4f/	4cc\
8E-\J	.	.	.
4D\	4B-\	4f/	4dd\
4C/	8B-/L	8g/L	4ee-\
.	8A/J	8f#/J	.
8G\L	4B-\	4g/	4dd\
8F\J	.	.	.
=12	=12	=12	=12
4E-\	4c\	8g/L	4.cc\
.	.	8f#/J	.
4En\	4c\	4g/	.
.	.	.	8b-\
4F\	4c\	4fn/	4a/
4FF;/	4A;/	4c;/	4g;/
=13	=13	=13	=13
8F#\L	4A/	8a/L	4dd\
8E\J	.	8g/J	.
8F#\L	4d\	4a/	4a/
8D\J	.	.	.
4G\	4d\	8a/L	4b-\
.	.	8g/J	.
4D\	4d\	8g/L	4a/
.	.	8f#/J	.
=14	=14	=14	=14
8G\L	4d\	4g/	4b-\
8F\J	.	.	.
4E-\	4e-\	4g/	4cc\
2D;\,	2A;/,	2f#;/,	2dd;\,
=15	=15	=15	=15
4G\	4B-\	4g/	4dd\
4BB-/	4d\	4g/	4dd\
4C/	8e-\L	8g/L	4cc\
.	8d\J	8f#/J	.
4C#/	4en\	4g/	4b-\
=16	=16	=16	=16
4D\	8A\L	8g/L	4.a/
.	8d\J	16f#/L	.
.	.	16e/JJ	.
4DD/	8.d\L	4f#/	.
.	.	.	8g/
.	16c\Jk	.	.
2GG;/	2B-;\	2d;/	2g;/
==	==	==	==
*-	*-	*-	*-
!!!CDT: 1685/3//-1750/7/28
!!!OCY: Deutschland
!!!PDT: 1784//
!!!PPP: Leipzig
!!!AGN: chorale harmonization
!!!AST: baroque, choral
!!!AMT: simple quadruple
!!!YOR: Bach Gesellschaft, xxxix
!!!AIN: bass calto soprn tenor vox
!!!EEV: 1.0
!!!RDT: 1994 August 08
!!!YER: 1996 July 11
!!!YEN: United States of America
!!!EFL: 170/185
!!!ENC: S. Rasmussen
!!!EED: W.B. Hewlett
!!!VTS: 3118037917
